gama.ui.shared/icons_svg/light/toolbar/font.increase.svg

<svg height="24.75" viewBox="-812.811 -2877.423 24.75 24.75" width="24.75" xmlns="http://www.w3.org/2000/svg"><g fill="none"><circle cx="-800.436" cy="-2865.048" fill="#666" r="8"/><circle cx="-800.436" cy="-2865.048" r="8"/><circle cx="-800.436" cy="-2865.048" fill="#fff" r="8"/><circle cx="-800.436" cy="-2865.048" r="8"/><path d="m-800.05495-2865.429h2.66665c.2104 0 .381.1706.381.381s-.1706.381-.381.381h-2.66665v2.6666c0 .2104-.17055.381-.38095.381s-.381-.1706-.381-.381v-2.6666h-2.6666c-.2104 0-.381-.1706-.381-.381s.1706-.381.381-.381h2.6666v-2.6666c0-.2104.1706-.381.381-.381s.38095.1706.38095.381zm-.38095 8.381c-4.4183 0-8-3.5817-8-8s3.5817-8 8-8 8 3.5817 8 8-3.5817 8-8 8zm0-.762c3.9975 0 7.2381-3.2405 7.2381-7.238s-3.2406-7.238-7.2381-7.238-7.2381 3.2405-7.2381 7.238 3.2406 7.238 7.2381 7.238z" fill="#5c76a1"/></g></svg>

<?xml version="1.0" encoding="UTF-8" standalone="no"?>
<!DOCTYPE svg PUBLIC "-//W3C//DTD SVG 1.1//EN" "http://www.w3.org/Graphics/SVG/1.1/DTD/svg11.dtd">
<svg xmlns="http://www.w3.org/2000/svg" xmlns:dc="http://purl.org/dc/elements/1.1/" version="1.1" xmlns:xl="http://www.w3.org/1999/xlink" viewBox="-812.8109 -2877.423 24.75 24.75" width="24.75" height="24.75">
  <defs/>
  <g id="SOURCES" stroke-dasharray="none" stroke-opacity="1" stroke="none" fill="none" fill-opacity="1">
    <title>SOURCES</title>
    <g id="SOURCES_Calque_4">
      <title>Calque 4</title>
      <g id="Graphic_12316">
        <circle cx="-800.4359" cy="-2865.048" r="8.00000702080157" fill="#666"/>
        <circle cx="-800.4359" cy="-2865.048" r="8.00000702080157" stroke="black" stroke-linecap="round" stroke-linejoin="round" stroke-width="0"/>
      </g>
      <g id="Graphic_12315"/>
      <g id="Graphic_12314">
        <circle cx="-800.4359" cy="-2865.048" r="8.00000702080157" fill="white"/>
        <circle cx="-800.4359" cy="-2865.048" r="8.00000702080157" stroke="black" stroke-linecap="round" stroke-linejoin="round" stroke-width="0"/>
      </g>
      <g id="Graphic_12313">
        <path d="M -800.05495 -2865.429 L -797.3883 -2865.429 C -797.1779 -2865.429 -797.0073 -2865.2584 -797.0073 -2865.048 C -797.0073 -2864.8376 -797.1779 -2864.667 -797.3883 -2864.667 L -800.05495 -2864.667 L -800.05495 -2862.0004 C -800.05495 -2861.79 -800.2255 -2861.6194 -800.4359 -2861.6194 C -800.6463 -2861.6194 -800.8169 -2861.79 -800.8169 -2862.0004 L -800.8169 -2864.667 L -803.4835 -2864.667 C -803.6939 -2864.667 -803.8645 -2864.8376 -803.8645 -2865.048 C -803.8645 -2865.2584 -803.6939 -2865.429 -803.4835 -2865.429 L -800.8169 -2865.429 L -800.8169 -2868.0956 C -800.8169 -2868.306 -800.6463 -2868.4766 -800.4359 -2868.4766 C -800.2255 -2868.4766 -800.05495 -2868.306 -800.05495 -2868.0956 Z M -800.4359 -2857.048 C -804.8542 -2857.048 -808.4359 -2860.6297 -808.4359 -2865.048 C -808.4359 -2869.4663 -804.8542 -2873.048 -800.4359 -2873.048 C -796.0176 -2873.048 -792.4359 -2869.4663 -792.4359 -2865.048 C -792.4359 -2860.6297 -796.0176 -2857.048 -800.4359 -2857.048 Z M -800.4359 -2857.81 C -796.4384 -2857.81 -793.1978 -2861.0505 -793.1978 -2865.048 C -793.1978 -2869.0455 -796.4384 -2872.286 -800.4359 -2872.286 C -804.4334 -2872.286 -807.674 -2869.0455 -807.674 -2865.048 C -807.674 -2861.0505 -804.4334 -2857.81 -800.4359 -2857.81 Z" fill="#5c76a1"/>
      </g>
    </g>
  </g>
</svg>
